X:037
T:Dan O'Keeffe's Slide 
B:CRE3.045 (SleamhnÃÂÃÂÃÂÃÂ¥n DhÃÂÃÂÃÂÃÂ³naill UÃÂÃÂÃÂÃÂ­ Chaoimh)
F:file ID: cre.3/037dan_ok
R:slide
Q:180
M:12/8
L:1/8
K:G
GA |:B2B cBc d2d d2e|dBG dBG ABc AGA|
B2B cBc d2B d2g|1 fed cBA G3 G2A:|
[2 fed cBA G3 GBd||:g2d B2g f2d B2c|
ded c2A d3 B2d|g2d B2g f2d BcB|
[1 ABc def g3 g2f:|2 ABc def g3 g3 |]

%%%

